;FLAVOR:Marlin
;TIME:34902
;Filament used: 35.9448m
;Layer height: 0.2
;MINX:67.907
;MINY:9.375
;MINZ:0.2
;MAXX:268.283
;MAXY:293.157
;MAXZ:5
;Generated with Cura_SteamEngine 5.0.0
M140 S60
M105
M190 S60
M104 S210
M105
M109 S210
M82 ;absolute extrusion mode
M201 X500.00 Y500.00 Z100.00 E5000.00 ;Setup machine max acceleration
M203 X500.00 Y500.00 Z10.00 E50.00 ;Setup machine max feedrate
M204 P500.00 R1000.00 T500.00 ;Setup Print/Retract/Travel acceleration
M205 X8.00 Y8.00 Z0.40 E5.00 ;Setup Jerk
M220 S100 ;Reset Feedrate
M221 S100 ;Reset Flowrate

G28 ;Home

G92 E0 ;Reset Extruder
G1 Z2.0 F3000 ;Move Z Axis up
G1 X10.1 Y20 Z0.28 F5000.0 ;Move to start position
G1 X10.1 Y200.0 Z0.28 F1500.0 E15 ;Draw the first line
G1 X10.4 Y200.0 Z0.28 F5000.0 ;Move to side a little
G1 X10.4 Y20 Z0.28 F1500.0 E30 ;Draw the second line
G92 E0 ;Reset Extruder
G1 Z2.0 F3000 ;Move Z Axis up

G92 E0
G92 E0
G1 F2700 E-5
;LAYER_COUNT:25
;LAYER:0
M107
G0 F6000 X83.543 Y38.837 Z0.2
G0 X81.713 Y43.09
;TYPE:SKIRT
G1 F2700 E0
G1 F1200 X82.791 Y40.551 E0.09174
G1 X83.543 Y38.837 E0.154
G1 X84.594 Y36.522 E0.23856
G1 X85.05 Y35.544 E0.27445
G1 X86.133 Y33.279 E0.35795
G1 X87.36 Y30.806 E0.44977
G1 X88.614 Y28.374 E0.54078
G1 X89.876 Y26.014 E0.62979
G1 X90.752 Y24.42 E0.69029
G1 X92.132 Y21.986 E0.78335
G1 X93.493 Y19.668 E0.87275
G1 X94.904 Y17.346 E0.96312
G1 X96.277 Y15.163 E1.0489
G1 X96.663 Y14.581 E1.07213
G1 X97.214 Y13.822 E1.10332
G1 X97.753 Y13.194 E1.13085
G1 X97.9 Y13.035 E1.13805
G1 X98.565 Y12.374 E1.16923
G1 X99.285 Y11.772 E1.20045
G1 X100.053 Y11.234 E1.23164
G1 X100.994 Y10.695 E1.26771
G1 X101.24 Y10.57 E1.27688
G1 X102.093 Y10.182 E1.30805
G1 X102.977 Y9.867 E1.33926
G1 X103.884 Y9.629 E1.37045
G1 X104.808 Y9.468 E1.40165
G1 X105.961 Y9.38 E1.44011
G1 X106.171 Y9.375 E1.44709
G1 X107.109 Y9.393 E1.4783
G1 X108.042 Y9.49 E1.5095
G1 X108.963 Y9.667 E1.54069
G1 X109.668 Y9.858 E1.56498
G1 X109.85 Y9.914 E1.57132
G1 X110.734 Y10.228 E1.60252
G1 X111.588 Y10.616 E1.63372
G1 X112.418 Y11.083 E1.66539
G1 X113.598 Y11.819 E1.71165
G1 X211.312 Y75.273 E5.58677
G1 X211.94 Y75.693 E5.61189
G1 X212.841 Y76.365 E5.64928
G1 X213.004 Y76.5 E5.65632
G1 X213.701 Y77.129 E5.68754
G1 X214.634 Y78.171 E5.73406
G1 X214.763 Y78.335 E5.741
G1 X215.311 Y79.097 E5.77222
G1 X215.792 Y79.902 E5.80341
G1 X216.202 Y80.745 E5.83459
G1 X216.6 Y81.805 E5.87225
G1 X216.668 Y82.019 E5.87972
G1 X216.914 Y82.924 E5.91091
G1 X217.082 Y83.847 E5.94211
G1 X217.161 Y84.617 E5.96786
G1 X217.194 Y85.119 E5.98459
G1 X217.401 Y87.69 E6.07038
G1 X217.674 Y90.194 E6.15416
G1 X218.017 Y92.686 E6.23782
G1 X218.427 Y95.142 E6.32064
G1 X218.919 Y97.659 E6.40594
G1 X219.459 Y100.061 E6.48782
G1 X220.089 Y102.523 E6.57235
G1 X220.785 Y104.958 E6.65658
G1 X221.539 Y107.342 E6.73974
G1 X222.368 Y109.724 E6.82363
G1 X223.269 Y112.096 E6.90802
G1 X224.229 Y114.421 E6.99169
G1 X225.234 Y116.675 E7.07377
G1 X226.347 Y118.99 E7.1592
G1 X227.5 Y121.225 E7.24285
G1 X228.711 Y123.419 E7.3262
G1 X229.986 Y125.582 E7.40971
G1 X231.328 Y127.716 E7.49355
G1 X232.72 Y129.798 E7.57685
G1 X234.191 Y131.868 E7.66132
G1 X235.698 Y133.868 E7.74461
G1 X237.274 Y135.841 E7.82859
G1 X238.882 Y137.738 E7.91131
G1 X240.603 Y139.657 E7.99704
G1 X242.287 Y141.433 E8.07844
G1 X244.113 Y143.252 E8.16417
G1 X245.913 Y144.946 E8.24638
G1 X247.82 Y146.641 E8.33124
G1 X249.739 Y148.254 E8.41462
G1 X251.706 Y149.813 E8.4981
G1 X253.72 Y151.319 E8.58174
G1 X255.825 Y152.801 E8.66736
G1 X256.976 Y153.575 E8.7135
G1 X257.732 Y154.131 E8.74471
G1 X258.437 Y154.749 E8.77589
G1 X259.143 Y155.49 E8.80993
G1 X259.308 Y155.68 E8.8183
G1 X259.893 Y156.414 E8.84952
G1 X260.412 Y157.195 E8.88071
G1 X260.863 Y158.017 E8.91189
G1 X261.345 Y159.145 E8.95269
G1 X261.424 Y159.363 E8.9604
G1 X261.706 Y160.258 E8.99161
G1 X261.979 Y161.608 E9.03742
G1 X262.074 Y162.473 E9.06637
G1 X262.155 Y163.634 E9.10508
G1 X268.256 Y280.113 E12.98449
G1 X268.283 Y280.819 E13.00799
G1 X268.279 Y281.756 E13.03916
G1 X268.141 Y283.047 E13.08234
G1 X268.079 Y283.419 E13.09489
G1 X267.886 Y284.337 E13.12609
G1 X267.615 Y285.235 E13.15728
G1 X267.268 Y286.106 E13.18847
G1 X266.849 Y286.945 E13.21966
G1 X266.227 Y287.939 E13.25866
G1 X266.099 Y288.121 E13.26606
G1 X265.527 Y288.864 E13.29725
G1 X264.894 Y289.556 E13.32844
G1 X264.204 Y290.192 E13.35965
G1 X263.463 Y290.767 E13.39085
G1 X262.649 Y291.291 E13.42304
G1 X262.447 Y291.409 E13.43083
G1 X261.618 Y291.847 E13.46201
G1 X260.755 Y292.213 E13.49319
G1 X259.877 Y292.501 E13.52392
G1 X258.967 Y292.726 E13.5551
G1 X258.04 Y292.873 E13.58632
G1 X257.431 Y292.926 E13.60665
G1 X255.938 Y293.011 E13.65639
G1 X253.755 Y293.088 E13.72904
G1 X250.932 Y293.145 E13.82295
G1 X248.124 Y293.157 E13.91635
G1 X245.304 Y293.127 E14.01015
G1 X242.524 Y293.054 E14.10264
G1 X239.669 Y292.934 E14.19768
G1 X236.811 Y292.769 E14.2929
G1 X233.985 Y292.561 E14.38715
G1 X231.194 Y292.31 E14.48035
G1 X228.371 Y292.014 E14.57476
G1 X225.57 Y291.675 E14.6686
G1 X222.79 Y291.296 E14.76192
G1 X220.057 Y290.88 E14.85386
G1 X217.218 Y290.401 E14.94962
G1 X214.482 Y289.895 E15.04217
G1 X211.761 Y289.35 E15.13447
G1 X208.989 Y288.748 E15.22881
G1 X206.161 Y288.088 E15.3254
G1 X203.582 Y287.443 E15.41382
G1 X200.789 Y286.701 E15.50994
G1 X198.117 Y285.945 E15.6023
G1 X196.111 Y285.347 E15.67192
G1 X193.42 Y284.506 E15.76569
G1 X190.722 Y283.616 E15.86018
G1 X188.005 Y282.673 E15.95584
G1 X185.369 Y281.71 E16.04918
G1 X182.728 Y280.699 E16.14324
G1 X180.18 Y279.678 E16.23453
G1 X177.55 Y278.578 E16.32935
G1 X174.978 Y277.452 E16.42273
G1 X172.549 Y276.346 E16.5115
G1 X171.484 Y275.847 E16.55062
G1 X169.055 Y274.679 E16.64026
G1 X166.567 Y273.434 E16.7328
G1 X164.498 Y272.363 E16.81029
G1 X162.854 Y271.486 E16.87226
G1 X160.341 Y270.104 E16.96765
G1 X157.946 Y268.74 E17.05932
G1 X155.507 Y267.297 E17.15357
G1 X153.087 Y265.815 E17.24796
G1 X150.659 Y264.275 E17.34359
G1 X148.321 Y262.742 E17.43657
G1 X146.032 Y261.188 E17.52859
G1 X143.76 Y259.596 E17.62087
G1 X141.393 Y257.879 E17.71812
G1 X139.19 Y256.229 E17.80967
G1 X136.843 Y254.413 E17.90837
G1 X134.591 Y252.61 E18.00432
G1 X132.462 Y250.851 E18.09617
G1 X130.611 Y249.275 E18.17703
G1 X129.158 Y248.011 E18.24108
G1 X127.919 Y246.91 E18.29621
G1 X125.808 Y244.984 E18.39126
G1 X124.336 Y243.605 E18.45834
G1 X123.114 Y242.436 E18.51459
G1 X121.121 Y240.482 E18.60742
G1 X119.673 Y239.022 E18.67581
G1 X118.544 Y237.863 E18.72963
G1 X116.68 Y235.898 E18.81971
G1 X115.128 Y234.217 E18.89581
G1 X113.913 Y232.869 E18.95617
G1 X112.266 Y231.004 E19.03892
G1 X110.938 Y229.456 E19.10676
G1 X109.004 Y227.143 E19.20704
G1 X107.099 Y224.784 E19.30789
G1 X105.243 Y222.406 E19.40822
G1 X103.937 Y220.681 E19.48018
G1 X102.13 Y218.224 E19.58162
G1 X100.376 Y215.751 E19.68246
G1 X98.715 Y213.328 E19.78017
G1 X97.8 Y211.958 E19.83497
G1 X96.28 Y209.613 E19.92791
G1 X95.747 Y208.773 E19.961
G1 X94.62 Y206.963 E20.03192
G1 X92.973 Y204.227 E20.13813
G1 X91.917 Y202.411 E20.208
G1 X90.462 Y199.831 E20.30652
G1 X89.675 Y198.388 E20.36119
G1 X88.325 Y195.847 E20.45689
G1 X87.254 Y193.755 E20.53506
G1 X86.074 Y191.367 E20.62365
G1 X85.295 Y189.743 E20.68356
G1 X84.01 Y186.967 E20.7853
G1 X82.85 Y184.352 E20.88045
G1 X82.46 Y183.444 E20.91332
G1 X81.398 Y180.914 E21.00458
G1 X80.767 Y179.348 E21.06073
G1 X79.672 Y176.532 E21.16122
G1 X78.831 Y174.273 E21.2414
G1 X78.117 Y172.278 E21.31187
G1 X77.126 Y169.373 E21.41396
G1 X76.268 Y166.724 E21.50657
G1 X75.47 Y164.128 E21.5969
G1 X74.691 Y161.447 E21.68976
G1 X73.999 Y158.923 E21.77681
G1 X73.293 Y156.191 E21.87066
G1 X72.624 Y153.419 E21.9655
G1 X72.035 Y150.803 E22.05469
G1 X71.48 Y148.161 E22.14448
G1 X70.969 Y145.524 E22.23382
G1 X70.505 Y142.933 E22.32137
G1 X70.083 Y140.363 E22.40799
G1 X69.716 Y137.913 E22.49039
G1 X69.355 Y135.231 E22.5804
G1 X69.061 Y132.797 E22.66194
G1 X68.784 Y130.186 E22.74927
G1 X68.543 Y127.537 E22.83774
G1 X68.345 Y124.964 E22.92357
G1 X68.185 Y122.423 E23.00825
G1 X68.057 Y119.757 E23.09703
G1 X67.971 Y117.253 E23.18036
G1 X67.919 Y114.581 E23.26925
G1 X67.907 Y111.786 E23.36221
G1 X67.936 Y109.08 E23.45222
G1 X68.003 Y106.462 E23.53932
G1 X68.114 Y103.702 E23.63119
G1 X68.216 Y101.796 E23.69468
G1 X68.401 Y99.012 E23.78748
G1 X68.614 Y96.407 E23.87441
G1 X68.873 Y93.705 E23.96469
G1 X69.174 Y91.015 E24.05472
G1 X69.524 Y88.246 E24.14755
G1 X69.894 Y85.648 E24.23483
G1 X70.329 Y82.888 E24.32776
G1 X70.807 Y80.128 E24.42093
G1 X71.314 Y77.445 E24.51174
G1 X71.871 Y74.729 E24.60396
G1 X72.461 Y72.058 E24.69494
G1 X73.085 Y69.416 E24.78523
G1 X73.705 Y66.964 E24.86935
G1 X73.951 Y66.027 E24.90157
G1 X74.67 Y63.398 E24.99222
G1 X75.421 Y60.808 E25.08191
G1 X76.214 Y58.211 E25.17223
G1 X77.018 Y55.715 E25.25944
G1 X77.937 Y53.003 E25.35468
G1 X78.8 Y50.574 E25.44042
G1 X79.755 Y48.011 E25.53139
G1 X80.721 Y45.532 E25.61988
G1 X81.713 Y43.09 E25.70755
G1 F2700 E20.70755
G0 F6000 X80.128 Y48.156
G1 F2700 E25.70755
G1 F1200 X81.091 Y45.683 E25.79582
G1 X82.081 Y43.247 E25.88327
G1 X83.157 Y40.711 E25.9749
G1 X83.908 Y39.002 E26.03699
G1 X84.957 Y36.691 E26.1214
G1 X85.411 Y35.717 E26.15714
G1 X86.492 Y33.456 E26.2405
G1 X87.716 Y30.989 E26.33209
G1 X88.966 Y28.563 E26.42286
G1 X90.227 Y26.206 E26.51177
G1 X91.1 Y24.618 E26.57204
G1 X92.477 Y22.189 E26.66491
G1 X93.835 Y19.876 E26.75412
G1 X95.243 Y17.559 E26.8443
G1 X96.61 Y15.384 E26.92974
G1 X96.996 Y14.802 E26.95297
G1 X97.538 Y14.058 E26.98358
G1 X98.047 Y13.465 E27.00958
G1 X98.194 Y13.306 E27.01678
G1 X98.847 Y12.658 E27.04738
G1 X99.555 Y12.069 E27.07801
G1 X100.311 Y11.543 E27.10864
G1 X101.175 Y11.052 E27.14169
G1 X101.421 Y10.927 E27.15087
G1 X102.259 Y10.546 E27.18149
G1 X103.127 Y10.239 E27.21211
G1 X104.019 Y10.009 E27.24275
G1 X104.927 Y9.857 E27.27337
G1 X105.971 Y9.78 E27.30819
G1 X106.181 Y9.775 E27.31517
G1 X107.101 Y9.793 E27.34578
G1 X108.017 Y9.891 E27.37642
G1 X108.92 Y10.068 E27.40703
G1 X109.732 Y10.297 E27.43509
G1 X110.6 Y10.605 E27.46572
G1 X111.437 Y10.988 E27.49633
G1 X112.207 Y11.423 E27.52575
G1 X113.38 Y12.154 E27.57172
G1 X211.09 Y75.606 E31.44669
G1 X211.718 Y76.026 E31.47182
G1 X212.586 Y76.673 E31.50782
G1 X212.749 Y76.808 E31.51486
G1 X213.432 Y77.426 E31.5455
G1 X214.319 Y78.419 E31.58978
G1 X214.448 Y78.583 E31.59672
G1 X214.986 Y79.33 E31.62734
G1 X215.456 Y80.122 E31.65797
G1 X215.856 Y80.951 E31.68859
G1 X216.219 Y81.926 E31.72319
G1 X216.287 Y82.14 E31.73066
G1 X216.528 Y83.029 E31.7613
G1 X216.69 Y83.935 E31.79191
G1 X216.761 Y84.644 E31.81561
G1 X216.791 Y85.101 E31.83084
G1 X217.002 Y87.732 E31.91863
G1 X217.274 Y90.22 E32.00187
G1 X217.621 Y92.735 E32.08631
G1 X218.039 Y95.248 E32.17104
G1 X218.522 Y97.718 E32.25475
G1 X219.075 Y100.176 E32.33855
G1 X219.7 Y102.617 E32.42236
G1 X220.398 Y105.06 E32.50686
G1 X221.166 Y107.489 E32.59159
G1 X221.988 Y109.85 E32.67474
G1 X222.901 Y112.254 E32.76027
G1 X223.852 Y114.558 E32.84318
G1 X224.886 Y116.875 E32.92757
G1 X225.981 Y119.154 E33.01166
G1 X227.145 Y121.41 E33.09609
G1 X228.351 Y123.595 E33.1791
G1 X229.652 Y125.802 E33.26431
G1 X230.984 Y127.92 E33.34753
G1 X232.406 Y130.046 E33.4326
G1 X233.862 Y132.095 E33.5162
G1 X235.386 Y134.117 E33.60042
G1 X236.955 Y136.082 E33.68405
G1 X238.592 Y138.014 E33.76828
G1 X240.298 Y139.916 E33.85326
G1 X242.031 Y141.744 E33.93704
G1 X243.803 Y143.509 E34.02022
G1 X245.655 Y145.253 E34.10483
G1 X247.542 Y146.93 E34.1888
G1 X249.5 Y148.575 E34.27385
G1 X251.442 Y150.114 E34.35627
G1 X253.518 Y151.667 E34.4425
G1 X255.573 Y153.114 E34.52609
G1 X256.753 Y153.907 E34.57338
G1 X257.494 Y154.453 E34.60399
G1 X258.185 Y155.062 E34.63463
G1 X258.841 Y155.753 E34.66632
G1 X259.006 Y155.943 E34.67469
G1 X259.579 Y156.663 E34.70529
G1 X260.087 Y157.431 E34.73592
G1 X260.527 Y158.24 E34.76655
G1 X260.969 Y159.282 E34.80419
G1 X261.048 Y159.5 E34.81191
G1 X261.324 Y160.378 E34.84252
G1 X261.583 Y161.663 E34.88612
G1 X261.675 Y162.502 E34.91419
G1 X261.755 Y163.654 E34.9526
G1 X267.856 Y280.128 E38.83185
G1 X267.883 Y280.834 E38.85535
G1 X267.878 Y281.755 E38.88598
G1 X267.747 Y282.982 E38.92702
G1 X267.685 Y283.354 E38.93957
G1 X267.494 Y284.254 E38.97017
G1 X267.226 Y285.135 E39.00079
G1 X266.883 Y285.989 E39.0314
G1 X266.466 Y286.81 E39.06203
G1 X265.899 Y287.709 E39.09738
G1 X265.771 Y287.891 E39.10478
G1 X265.21 Y288.62 E39.13538
G1 X264.587 Y289.298 E39.166
G1 X263.907 Y289.919 E39.19663
G1 X263.176 Y290.479 E39.22726
G1 X262.448 Y290.946 E39.25603
G1 X262.246 Y291.064 E39.26381
G1 X261.431 Y291.493 E39.29444
G1 X260.583 Y291.85 E39.32504
G1 X259.764 Y292.117 E39.35369
G1 X258.871 Y292.337 E39.38428
G1 X257.961 Y292.479 E39.41492
G1 X257.407 Y292.527 E39.43341
G1 X255.924 Y292.611 E39.48281
G1 X253.747 Y292.688 E39.55527
G1 X250.93 Y292.745 E39.64898
G1 X248.128 Y292.757 E39.74218
G1 X245.314 Y292.727 E39.83577
G1 X242.541 Y292.655 E39.92804
G1 X239.692 Y292.535 E40.02288
G1 X236.841 Y292.37 E40.11786
G1 X234.021 Y292.162 E40.21191
G1 X231.235 Y291.913 E40.30494
G1 X228.418 Y291.617 E40.39915
G1 X225.624 Y291.279 E40.49276
G1 X222.85 Y290.9 E40.58588
G1 X220.123 Y290.485 E40.67762
G1 X217.291 Y290.007 E40.77315
G1 X214.561 Y289.503 E40.86548
G1 X211.845 Y288.959 E40.95761
G1 X209.08 Y288.358 E41.05172
G1 X206.258 Y287.7 E41.1481
G1 X203.684 Y287.056 E41.23635
G1 X200.898 Y286.316 E41.33223
G1 X198.231 Y285.561 E41.42442
G1 X196.23 Y284.965 E41.49386
G1 X193.545 Y284.126 E41.58742
G1 X190.853 Y283.238 E41.6817
G1 X188.142 Y282.297 E41.77715
G1 X185.512 Y281.337 E41.87027
G1 X182.877 Y280.328 E41.96412
G1 X180.335 Y279.309 E42.0552
G1 X177.71 Y278.211 E42.14984
G1 X175.144 Y277.088 E42.243
G1 X172.718 Y275.984 E42.33165
G1 X171.657 Y275.487 E42.37062
G1 X169.234 Y274.321 E42.46006
G1 X166.751 Y273.078 E42.55241
G1 X164.686 Y272.01 E42.62974
G1 X163.047 Y271.136 E42.69152
G1 X160.539 Y269.756 E42.78673
G1 X158.15 Y268.396 E42.87816
G1 X155.715 Y266.955 E42.97227
G1 X153.301 Y265.477 E43.06641
G1 X150.878 Y263.941 E43.16183
G1 X148.546 Y262.411 E43.25459
G1 X146.261 Y260.861 E43.34643
G1 X143.995 Y259.272 E43.43848
G1 X141.633 Y257.559 E43.53552
G1 X139.434 Y255.913 E43.62688
G1 X137.093 Y254.101 E43.72535
G1 X134.845 Y252.301 E43.82113
G1 X132.722 Y250.546 E43.91274
G1 X130.874 Y248.973 E43.99346
G1 X129.423 Y247.712 E44.0574
G1 X128.188 Y246.614 E44.11236
G1 X126.082 Y244.692 E44.20719
G1 X124.612 Y243.316 E44.27416
G1 X123.393 Y242.15 E44.33027
G1 X121.405 Y240.201 E44.42286
G1 X119.959 Y238.743 E44.49116
G1 X118.834 Y237.588 E44.54479
G1 X116.974 Y235.626 E44.63471
G1 X115.425 Y233.949 E44.71064
G1 X114.213 Y232.604 E44.77086
G1 X112.57 Y230.743 E44.85343
G1 X111.244 Y229.199 E44.92112
G1 X109.857 Y227.548 E44.99284
G1 X109.241 Y226.801 E45.02504
G1 X107.414 Y224.538 E45.12178
G1 X105.562 Y222.165 E45.22189
G1 X104.259 Y220.444 E45.29369
G1 X102.456 Y217.992 E45.39492
G1 X100.705 Y215.525 E45.49554
G1 X99.047 Y213.105 E45.59311
G1 X98.135 Y211.741 E45.64768
G1 X96.617 Y209.398 E45.74053
G1 X96.086 Y208.561 E45.7735
G1 X94.962 Y206.757 E45.8442
G1 X93.318 Y204.026 E45.95022
G1 X92.265 Y202.214 E46.01992
G1 X90.813 Y199.64 E46.11822
G1 X90.028 Y198.201 E46.17274
G1 X88.681 Y195.664 E46.26827
G1 X87.612 Y193.578 E46.34623
G1 X86.435 Y191.194 E46.43466
G1 X85.658 Y189.575 E46.49439
G1 X84.376 Y186.805 E46.59591
G1 X83.218 Y184.194 E46.69091
G1 X82.828 Y183.289 E46.72369
G1 X81.769 Y180.764 E46.81476
G1 X81.14 Y179.203 E46.87073
G1 X80.047 Y176.392 E46.97105
G1 X79.208 Y174.138 E47.05104
G1 X78.496 Y172.149 E47.1213
G1 X77.506 Y169.25 E47.22319
G1 X76.65 Y166.607 E47.3156
G1 X75.854 Y164.016 E47.40575
G1 X75.077 Y161.341 E47.4984
G1 X74.386 Y158.823 E47.58524
G1 X73.682 Y156.097 E47.67888
G1 X73.014 Y153.331 E47.77352
G1 X72.426 Y150.721 E47.86251
G1 X71.873 Y148.084 E47.95212
G1 X71.363 Y145.454 E48.04123
G1 X70.9 Y142.868 E48.12861
G1 X70.479 Y140.303 E48.21506
G1 X70.113 Y137.86 E48.29722
G1 X69.752 Y135.183 E48.38706
G1 X69.459 Y132.754 E48.46844
G1 X69.182 Y130.15 E48.55554
G1 X68.941 Y127.506 E48.64384
G1 X68.744 Y124.939 E48.72947
G1 X68.584 Y122.404 E48.81395
G1 X68.456 Y119.743 E48.90256
G1 X68.371 Y117.245 E48.98569
